X:1
T:A minor                      Amos Pilsbury, 1799
T:Francis Hopkinson, 1767 (Psalm 22)                    88. 66. 88. 66.
T:Orangeburgh
T:Transcribed from  The United States Sacred Harmony, 1799.
%%score [ 1 2 3 4 ]
L:1/8
Q:1/4=80
M:3/4
K:C
V:1 treble nm="Tr." snm="Tr."
V:2 treble nm="C." snm="C."
V:3 treble-8 nm="T." snm="T."
V:4 bass nm="B." snm="B."
V:1
"^1. My God!    my  God!     why  leavest  thou  me,  When  I           with  an   –   guish  call ____  on  thee?  Why  dost  thou  me          ne     –     glect,  And  my      loud\n2. Yet  thou,   O     Lord,     art    ev     –     er      just,  Re  –  lie    –   ving  those,   who   in           thee  trust;  Therefore  shalt   Is      –    rael            raise   To    thee,    con–" c2 | %1
 (e>d c2) A2 | (B>A G2) A2 | (A>B c2) B2 | A4 A2 | (c>d e2) c2 | (d>c B2) A2 | (c>B A2) ^GA | %8
 B4 B2 | (c>d e2) d2 | e4 e2 | e4 e2 | (A>B c2) B2 | %13
"^1. prayer reject? All day, but all the day ___ in   vain,  To  Thee,   O Lord, do  I ___ complain: All  night      have      I ____  implored  Thy help    to     me      re–stored.\n2.–tinual praise: On thee our ancestors ___ re –  lied,  And in  thy strength  their  foes  divide;  To  thee       their     prayers  addressed, And with suc–cess  were blessed." A4 ^G2 | %14
 A4 c2 | c4 c2 | c4 B2 | (c>B A2) d>c | !fermata!B4 B2 | (c>d e2) e2 | e4 g2 | (c>d e2) f2 | %22
 e4 e2 | (e>d c2) e2 | (d>c B2) A2 | ^G4 G2 | (A>B c2) [ce]2 | (B2 A2) ^G2 | A6 |] %29
V:2
"^3. Praise ye      the   Lord       in   songs        di–vine,   Ye      nu–merous   race ___  of  Is       –       rael’s  line;  To  him    with   fer   –    vor        pray,   And  low ___ o –\n4. Thus   in       thy  courts,   thy  name      I’ll  bless,   And   in         loud   songs      my  thanks        ex –press;  And  to     thy     saints    de    –    clare,  Thy  pro   –    vi –" E2 | %1
 E4 E2 | G4 G2 | (E2 F2) E2 | E4 E>G | A4 A2 | (E>F G2) A2 | (G2 E2) F2 | G4 G2 | E4 G2 | G4 G2 | %11
 E4 E2 | (F2 E2) D2 | %13
"^3.-bei-sance pay: His people he hath ne'er disdained, Or turned his face when they complained;  But to      their    hum – ble prayer,  Doth  lend   a     gra – cious  ear.\n4.-den-tial   care. The meek companions of my grief, Shall  at      my   ta – ble  find    re –  lief;  And   all       who     seek     thy    face,  Shall   find   re –fre–shing  grace.\n" E4 E2 | %14
 E4 E2 | E4 E2 | E4 E2 | E4 A2 | !fermata!G4 G2 | G4 G2 | G4 G2 | G4 A2 | G4 G2 | (C>D E2) E2 | %24
 G4 F2 | E4 E2 | E4 E2 | (F2 E2) E2 | E6 |] %29
V:3
"^5. Then shall   the   world  their  ho    –   mage  pay,   To    God,        and   his        com–mands     o   –  bey;  His power they  shall ___ con    –   fess,  And  prayers  to \n6. The    rich   his    boun  –  ty   must      con – fess,   The  poor       their  gene –  rous   pa    –     tron  bless;  To  him     they   all ____  re     –     sort,  For   suc  –  cor" A2 | %1
 (c>B A2) e2 | (d>c B2) d2 | (c>B A2) ^G2 | A4 c>d | e4 e2 | (g>f e2) A2 | (c>B c2) d2 | e4 e2 | %9
 (ec A2) d2 | (d>B G2) AB/c/ | (c2 B2) B2 | (c>B A2) e2 | %13
"^5. him address. From  kings  submission  to receive,  In  his        supreme  pre–ro  –  ga – tive,  Who doth      the      worlds  sus–tain;  And  o   –   ver   all   things  reign.\n6. and support: Then shall  a  race exalt      his  name, And to    their  heirs  his  truth proclaim,  Till   heaven  and     earth  combined, Are   all         to   God   re – signed." (d2 c2) B2 | %14
 A4 E2 | G4 E2 | A4 G2 | (c>B c2) d2 | !fermata!e4 e2 | c4 B2 | c4 d2 | (G>A G2) F2 | E4 E2 | %23
 (A>B c2) B>A | (d>e d2) c2 | B4 B2 | (e>d c2) e2 | (d2 c2) B2 | A6 |] %29
V:4
 A,2 | A,4 E,2 | G,4 G,2 | (C,2 D,2) E,2 | A,,4 E,2 | A,4 E,2 | G,4 C,2 | (E,2 A,2) D,2 | E,4 E,2 | %9
 (E,2 C,2) G,2 | (G,>F, E,2) A,,2 | E,4 E,2 | (F,>E, D,2) G,2 | A,4 E,2 | A,,4 A,,2 | C,4 C,2 | %16
 C,4 E,2 | A,4 D,2 | %18
"^_____________________________________________\nEdited by B. C. Johnston, 2018.   1. Measure 10, \nTenor\n: grace eighth-note following converted to normal eighth-note.\n   2. Measure 12, Tenor: grace quarter note on first note converted to normal quarter-note." !fermata!E,4 E,2 | %19
 E,4 E,2 | [C,E,]4 [G,,G,]2 | C,4 [A,,D,]2 | E,4 E,2 | A,4 E,2 | G,4 F,2 | E,4 E,2 | A,4 A,2 | %27
 (D,2 C,2) E,2 | A,,6 |] %29

